T: Irish Rover, The
M: 4/4
L: 1/8
K: Gmaj
BA |G2 Bc d2 ga | b2 af g2 fe | d2 ed B2 cB | A2 AB A2 dB |
G2 Bc d2 ga | b2 af g2 fe | d2 fg a2 fd | g2 g2 g2 ||
dd |g2 ga b2 gb | a2 af d2 ef | g2 ga b2 gb | a2 fe d2 BA |
G2 Bc d2 ga | b2 af g2 fe | d2 fg a2 fd | g2 g>g g2 |]
